!!!OTL: HAHL MI DEN SAHLHUND UT DEN STRANNE
!!!ARE: Europa, Mitteleuropa, Deutschland, Insel Ruegen
!!!SCT: E1504
!!!YEM: Copyright 1995, estate of Helmut Schaffrath.
**kern
*ICvox
*Ivox
*M3/4
*k[f#]
*G:
=1
{4g
4d
8e
8f#
=2
4g
4d}
{8e
8f#
=3
4g
4d
4g
=4
8a
8b
4g}
{4b
=5
8dd
8cc
4b
4b
=6
8cc
8b
4a
4a}
=7
{8b
8a
4g
4g
=8
8a
8g
4f#
4f#}
=9
{4g
4d
8e
8f#
=10
4g
4d}
{8e
8f#
=11
4g
4d
4g
=12
8a
8b
4g
4r}
==
!!!AGN: Staende -, Seemanns - Lied, Fischer
!!!ONB: ESAC (Essen Associative Code) Database: ERK3
!!!AMT: simple triple
!!!AIN: vox
!!!EED: Helmut Schaffrath
!!!EEV: 1.0
*-
